!!!COM:	Josquin des Prez
!!!CDT:	~1450-1521/08/27
!!!OPR:	Missa L'homme arm&eacute; sexti toni
!!!ONM:	1
!!!OTL:	Kyrie
!!!AGN:	Mass; Kyrie
!!!SCT:	NJE 6.2
!!!SCA:	New Josquin Edition 6.2
!!!voices: 4
!!!voices-OPR: 4(-6)
**kern	**kern	**kern	**kern
*staff4	*staff3	*staff2	*staff1
*clefF4	*clefGv2	*clefGv2	*clefG2
*Ivox	*Ivox	*Ivox	*Ivox
*I"Bassus	*I"Tenor	*I"Altus	*I"Superius
*I'B	*I'T	*I'A	*I'S
*>[A,B,C]	*>[A,B,C]	*>[A,B,C]	*>[A,B,C]
*>Kyrie1[A]	*>Kyrie1[A]	*>Kyrie1[A]	*>Kyrie1[A]
*>Christe[B]	*>Christe[B]	*>Christe[B]	*>Christe[B]
*>Kyrie2[C]	*>Kyrie2[C]	*>Kyrie2[C]	*>Kyrie2[C]
*k[b-]	*k[b-]	*k[b-]	*k[b-]
*>A	*>A	*>A	*>A
*M3/1	*M3/1	*M3/1	*M3/1
*met(O)	*met(O)	*met(O)	*met(O)
=1-	=1-	=1-	=1-
!!section: Kyrie I
!!!OMD: Kyrie I
0.r	0.r	0F	0.r
.	.	1F	.
=2	=2	=2	=2
0.r	0.r	1F	0f
.	.	1.B-	.
.	.	.	1f
.	.	2A/	.
=3	=3	=3	=3
0.r	0.r	1A	1f
.	.	2G/	1.b-
.	.	2F/	.
.	.	1G	.
.	.	.	2a/
=4	=4	=4	=4
0FF	0.r	0F	1.a
.	.	.	1f
1FF	.	2F/	.
.	.	2G/	4e/
.	.	.	4d/
=5	=5	=5	=5
1FF	0F	1A	1c
1.BB-	.	1B-	1.d
.	1F	1BB-	.
2AA/	.	.	2c/
=6	=6	=6	=6
1AA	1F	1C	1c
0GG	1.B-	1D	1r
.	.	1BB-	1g
.	2A/	.	.
=7	=7	=7	=7
1FF	1A	2C/	1a
.	.	2D/	.
1r	0G	0E-i	0b-
1EE-	.	.	.
=8	=8	=8	=8
1.FF	1F	2C/	0.a
.	.	1F	.
.	1r	.	.
2GG/	.	4Eni/	.
.	.	4D/	.
2AA/	[1c	[1C	.
2BB-/	.	.	.
=9	=9	=9	=9
1.C	1c]	2C/]	1g
.	.	2D/	.
.	1.c	2E/	1.g
2D\	.	2F/	.
2E\	.	2G/	.
2F\	2A/	2c\	4f/
.	.	.	4e/
=10	=10	=10	=10
2G\	2B-\	2B-\	2d/
2.A\	2c\	2A/	1c
.	1F	1c	.
4G\	.	.	.
4F\	.	.	1f
4E\	.	.	.
1D	1r	1F	.
.	.	.	4e/
.	.	.	4d/
=11	=11	=11	=11
1C	1c	2G/	0e
.	.	2.C/	.
2r	2c\	.	.
.	.	4D/	.
2C/	1c	2.E/	.
2AA/	.	.	1r
.	.	4F/	.
2BB-/	2B-\	2D/	.
=12	=12	=12	=12
2.C/	2A/	2C/	2.e/
.	1G	2c\	.
4D\	.	.	4f/
2E\	.	2r	2g/
2F\	2F/	2.c\	1.a
1FF	1c	.	.
.	.	4B-\	.
.	.	4A/	.
.	.	4G/	.
=13	=13	=13	=13
2r	2c\	2F/	2a/
2C/	1c	2G/	4g/
.	.	.	2e/
2AA/	.	2C/	.
.	.	.	4f/
2BB-/	2B-\	2D/	2d/
[1C	2A/	[1E	2c/
.	[2G/	.	4d/
.	.	.	[4e/
=14	=14	=14	=14
1C]	4G/]	1E]	4e/]
.	4F/	.	4f/
.	1c	.	2g/
2r	.	1F	1a
2FF/	2A/	.	.
2GG/	2B-\	2D/	2r
2EE-/	2c\	2G/	2g/
=15	=15	=15	=15
2FF/	2A/	2F/	2a/
2GG/	1B-	2D/	2g/
2EE-i/	.	2E-/	1b-
2GG/	2G/	2D/	.
2FF/	2A/	2F/	2a/
2GG/	2B-\	2D/	[2g/
=16	=16	=16	=16
2EE-i/	2G/	4E-i/	2g/]
.	.	4C/	.
2FF/	1A	1c	2f/
2C/	.	.	2e/
2D\	2F/	2B-\	2.f/
1C	2G/	1c	.
.	.	.	8e/L
.	.	.	8d/J
.	2A/	.	2e/
=17	=17	=17	=17
0.FFl	0.Fl	0.cl	0.fl
!!LO:LB:i:g=z
=18||	=18||	=18||	=18||
*>B	*>B	*>B	*>B
!!section: Christe
!!!OMD: Christe
*M2/1	*M2/1	*M2/1	*M2/1
*met(C|)	*met(C|)	*met(C|)	*met(C|)
0r	[0c	[0F	0f
=19	=19	=19	=19
0r	0c_	0F]	1.f
.	.	.	4e/
.	.	.	4d/
=20	=20	=20	=20
[0C	0c_	[0G	0e
=21	=21	=21	=21
0C]	0c]	0G]	1r
.	.	.	1e
=22	=22	=22	=22
[0BB-	[0d	[0B-	1f
.	.	.	1d
=23	=23	=23	=23
0BB-]	0d]	0B-]	0f
=24	=24	=24	=24
0C	1r	1.G	0e
.	[1c	.	.
.	.	[2A/	.
=25	=25	=25	=25
0AA	1c]	2A/]	0r
.	.	4G/	.
.	.	4A/	.
.	1c	2E/	.
.	.	2F/	.
=26	=26	=26	=26
[0GG	0B-	[0G	1r
.	.	.	[1d
=27	=27	=27	=27
0GG]	1r	0G]	2d/]
.	.	.	4e/
.	.	.	4f/
.	1B-	.	1g
=28	=28	=28	=28
0r	0c	1C	2r
.	.	.	2g/
.	.	[1F	2a/
.	.	.	[2cc\
=29	=29	=29	=29
0r	0A	0F]	4cc\]
.	.	.	4b-\
.	.	.	4a/
.	.	.	4g/
.	.	.	1f
=30	=30	=30	=30
[0C	0G	[0E	2r
.	.	.	2.g/
.	.	.	4f/
.	.	.	4e/
.	.	.	4d/
=31	=31	=31	=31
1C]	0r	1E]	1c
[1BB-	.	1F	2r
.	.	.	[2d/
=32	=32	=32	=32
0BB-]	0r	0D	2d/]
.	.	.	1f
.	.	.	4e/
.	.	.	4d/
=33	=33	=33	=33
0C	1r	2.C/	1e
.	.	4D/	.
.	[1c	4E/	2r
.	.	4F/	.
.	.	[2G/	2g/
=34	=34	=34	=34
0AA	0c]	2G/]	2a/
.	.	4F/	1cc
.	.	4E/	.
.	.	1F	.
.	.	.	4b-\
.	.	.	4a/
=35	=35	=35	=35
0GG	[0d	1.BB-	1.b-
.	.	2C/	4a/
.	.	.	4g/
=36	=36	=36	=36
0r	1d]	1D	1f
.	[1c	2E/	2g/
.	.	[2F/	[2a/
=37	=37	=37	=37
0r	0c]	2F/]	4a/]
.	.	.	4g/
.	.	4E/	1g
.	.	4D/	.
.	.	1C	.
.	.	.	4f/
.	.	.	4e/
=38	=38	=38	=38
0r	1B-	1G	2.d/
.	.	.	4c/
.	1G	2r	[1g
.	.	[2G/	.
=39	=39	=39	=39
0r	1B-	4G/]	0g]
.	.	4F/	.
.	.	4E/	.
.	.	4D/	.
.	1c	1C	.
=40	=40	=40	=40
1r	0A	1.c	1a
1F	.	.	1cc
.	.	4B-\	.
.	.	4A/	.
=41	=41	=41	=41
[0G	1.G	1B-	1.b-
.	.	[1E-	.
.	[2B-\	.	4a/
.	.	.	4g/
=42	=42	=42	=42
1G]	2B-\]	1E-]	1b-
.	4A/	.	.
.	4G/	.	.
[1F	2A/	1F	[1a
.	2F/	.	.
=43	=43	=43	=43
0F]	2r	1D	2a/]
.	1A	.	4g/
.	.	.	4f/
.	.	1F	1a
.	4G/	.	.
.	4F/	.	.
=44	=44	=44	=44
1E	2G/	2.C/	1.g
.	2C/	.	.
.	.	4D/	.
1C	[1c	4E/	.
.	.	4F/	.
.	.	2G/	4f/
.	.	.	4e/
=45	=45	=45	=45
1E	2c\]	2C/	1g
.	2B-\	2G/	.
1F	2A/	2A/	[1f
.	2G/	[2c\	.
=46	=46	=46	=46
0D	1F	4c\]	2f/]
.	.	4B-\	.
.	.	2.d\	4e/
.	.	.	4d/
.	2r	.	1f
.	.	4A/	.
.	2F/	2Bni\	.
=47	=47	=47	=47
[0Cl	2G/	1c	[0e;l
.	2A/	.	.
.	2G/	2r	.
.	[2c\	2G/	.
=48	=48	=48	=48
0C_	2c\]	2A/	0e_
.	2B-\	2G/	.
.	2A/	[1c	.
.	2G/	.	.
=49	=49	=49	=49
0C_	[0c;l	2c\]	0e_
.	.	2B-\	.
.	.	2.A/	.
.	.	4G/	.
=50	=50	=50	=50
0C]	0c]	0G;l	0e]
!!LO:LB:i:g=z
=51||	=51||	=51||	=51||
*>C	*>C	*>C	*>C
!!section: Kyrie II
!!!OMD: Kyrie II
*M3/1	*M3/1	*M3/1	*M3/1
*met(O)	*met(O)	*met(O)	*met(O)
[0.BB-	0.F	0B-	0d
.	.	1B-	1d
=52	=52	=52	=52
0.BB-]	0.B-	2F/	1d
.	.	1G	.
.	.	.	2r
.	.	4F/	1.d
.	.	4E/	.
.	.	1D	.
=53	=53	=53	=53
0.C	1A	2C/	1e
.	.	1.c	.
.	0G	.	2r
.	.	.	1.e
.	.	2G/	.
.	.	4c\	.
.	.	4B-\	.
=54	=54	=54	=54
0.D	0F	4A/	1f
.	.	4G/	.
.	.	1B-	.
.	.	.	2r
.	.	1A	1.f
.	1r	.	.
.	.	4G/	.
.	.	4F/	.
=55	=55	=55	=55
0.C	0c	2E/	1g
.	.	2.G/	.
.	.	.	2r
.	.	4F/	.
.	.	4E/	1.g
.	.	4D/	.
.	1c	2C/	.
.	.	[2c\	.
=56	=56	=56	=56
1r	0F	4c\]	1a
.	.	4B-\	.
.	.	2.A/	.
0D	.	.	2r
.	.	4G/	.
.	.	1F	1a
.	1r	.	.
.	.	4E/	4g/
.	.	4D/	4f/
=57	=57	=57	=57
2C/	0c	2E/	2g/
1F	.	2F/	1a
.	.	1A	.
4E\	.	.	4g/
4D\	.	.	4f/
2E\	1c	2G/	2g/
[2F\	.	2F/	[2a/
=58	=58	=58	=58
4F\]	0F	0A	4a/]
4E\	.	.	4g/
2.D\	.	.	4f/
.	.	.	4e/
.	.	.	2f/
4C/	.	.	.
2AA/	.	.	2c/
2.BB-/	1r	2D/	1d
.	.	[2F/	.
4AA/	.	.	.
=59	=59	=59	=59
2.FF/	0.r	2F/]	2r
.	.	4E/	2.c/
4GG/	.	4D/	.
4AA/	.	1C	.
4BB-/	.	.	4B-/
4C/	.	.	2A/
4D\	.	.	.
2E\	.	1r	2G/
2F\	.	.	[2A/
=60	=60	=60	=60
2.D\	0.r	0.r	2A/]
.	.	.	1B-
4C/	.	.	.
2D\	.	.	.
2AA/	.	.	1A
1BB-	.	.	.
.	.	.	2G/
=61	=61	=61	=61
1AA	0.r	2r	1A
.	.	2.c\	.
1r	.	.	2.c/
.	.	4B-\	.
.	.	2A/	.
.	.	.	4d/
1r	.	2G/	2e/
.	.	[2A/	2f/
=62	=62	=62	=62
0.r	0.r	2A/]	2c/
.	.	2.B-\	2.d/
.	.	4A/	4c/
.	.	1A	2A/
.	.	.	1B-
.	.	2G/	.
=63	=63	=63	=63
2r	0c	1A	2A/
1F	.	.	1a
.	.	2r	.
4E\	.	2A/	4g/
4D\	.	.	4f/
2E\	1c	2G/	2g/
2F\	.	2F/	2a/
=64	=64	=64	=64
2C/	1c	1G	2r
1E-	.	.	1g
.	[0B-	2r	.
4D\	.	2G/	4f/
4C/	.	.	4e/
2D\	.	2F/	2f/
2E-i\	.	2E-/	2g/
=65	=65	=65	=65
2BB-/	1B-]	1F	2r
1D	.	.	1f
.	[0A	2r	.
4C/	.	2F/	4e/
4BB-/	.	.	4d/
2C/	.	2E/	2e/
2D\	.	2D/	2f/
=66	=66	=66	=66
2AA/	1A]	1E	2r
1C	.	.	1e
.	[0G	2r	.
4BB-/	.	2E/	4d/
4AA/	.	.	4c/
2BB-/	.	2D/	2d/
2C/	.	2C/	2e/
=67	=67	=67	=67
2GG/	1G]	1D	2r
1BB-	.	.	1d
.	[0F	2r	.
4AA/	.	2D/	4c/
4GG/	.	.	4B-/
2AA/	.	2C/	2c/
2BB-/	.	2BB-/	2d/
=68	=68	=68	=68
0.FF	1F]	0.F	2c/
.	.	.	1cc
.	[0c	.	.
.	.	.	2b-\
.	.	.	2a/
.	.	.	4g/
.	.	.	4f/
=69	=69	=69	=69
2.C/	1c]	0.G	1e
4D\	.	.	.
0E-	0B-	.	0g
=70	=70	=70	=70
1F	1A	0.c	0f
0C	0G	.	.
.	.	.	1e
=71	=71	=71	=71
0.FFl	0.Fl	0.Al	0.fl
==	==	==	==
*-	*-	*-	*-
!!!RDF**kern: l=long note in original notation
!!!RDF**kern: i=editorial accidental
!!!ENC: Jesse Rodin; Victoria Chang 2011/09/04
!!!END: 2011/09/04/
!!!SMS: Petrucci 1502
!!!EED: Jesse Rodin
!!!EEV: 2011/10/03/
!!attribution-level@Jos: 1 (secure)
!!!ONB: Translated from MusicXML and edited on 2011/10/03/ by Craig Sapp
!!muse2ps: T^@{OPR}^u^@{ONM}{. }@{OTL}^C^@{COM}\n@{SCT}^i2I100v85,90,85,150Q16
